X:1
T:[ID 5-8]
T:[ID 5-8]
T:Bezeichnung standardisiert: Schwabisch Schwabisch
T:Urheber unbekannt Datum in der hier transkribierten schriftlichen Quelle: 1773
C:Urheber unbekannt
C:Datum in der hier transkribierten schriftlichen Quelle: 1773
L:1/8
M:3/4
K:D
V:1 treble 
V:1
 a2 f2 d2 | g2 e2 c2 | d2 f2 g2 | a2 f2 d2 | g2 e2 c2 | d6 :: e2 c2 A2 | d2 B2 ^G2 | A2 B2 d2 | %9
 e2 c2 A2 | d2 B2 ^G2 | A6 :| %12

